dist/imgs/jira-logo.svg

<svg width="21" height="21" viewBox="0 0 21 21" fill="none" xmlns="http://www.w3.org/2000/svg">
<g clip-path="url(#clip0_10_1038)">
<path d="M20.2591 9.91897L11.3963 0.989848L10.5376 0.124634L3.86588 6.84626L0.815078 9.91897C0.662692 10.0733 0.577148 10.2821 0.577148 10.4998C0.577148 10.7175 0.662692 10.9263 0.815078 11.0806L6.91025 17.2214L10.5376 20.875L17.2083 14.1533L17.3122 14.0496L20.2591 11.0853C20.3355 11.0089 20.3961 10.918 20.4375 10.8179C20.4788 10.7179 20.5001 10.6105 20.5001 10.5021C20.5001 10.3937 20.4788 10.2864 20.4375 10.1863C20.3961 10.0862 20.3355 9.99535 20.2591 9.91897ZM10.5376 13.5679L7.49227 10.4998L10.5376 7.43171L13.5819 10.4998L10.5376 13.5679Z" fill="#2684FF"/>
<path d="M10.5372 7.43191C9.57942 6.46722 9.03952 5.15988 9.03538 3.79546C9.03125 2.43103 9.56321 1.1204 10.5151 0.149841L3.85168 6.86035L7.47808 10.5139L10.5372 7.43191Z" fill="url(#paint0_linear_10_1038)"/>
<path d="M13.5899 10.4917L10.5372 13.5681C11.4986 14.5369 12.0387 15.8508 12.0387 17.2207C12.0387 18.5906 11.4986 19.9045 10.5372 20.8733L17.219 14.1452L13.5899 10.4917Z" fill="url(#paint1_linear_10_1038)"/>
</g>
<defs>
<linearGradient id="paint0_linear_10_1038" x1="9.99191" y1="4.3277" x2="5.70765" y2="8.5792" gradientUnits="userSpaceOnUse">
<stop offset="0.18" stop-color="#0052CC"/>
<stop offset="1" stop-color="#2684FF"/>
</linearGradient>
<linearGradient id="paint1_linear_10_1038" x1="776.603" y1="900.925" x2="1212.74" y2="1181.57" gradientUnits="userSpaceOnUse">
<stop offset="0.18" stop-color="#0052CC"/>
<stop offset="1" stop-color="#2684FF"/>
</linearGradient>
<clipPath id="clip0_10_1038">
<rect width="20" height="21" fill="white" transform="translate(0.499756 -0.000793457)"/>
</clipPath>
</defs>
</svg>

<svg width="21" height="21" fill="none" xmlns="http://www.w3.org/2000/svg"><g clip-path="url(#clip0_10_1038)"><path d="M20.26 9.919L11.395.989l-.858-.864-6.672 6.721L.816 9.92a.827.827 0 000 1.162l6.094 6.14 3.628 3.654 6.67-6.722.104-.103 2.947-2.965a.823.823 0 000-1.166zm-9.722 3.649L7.492 10.5l3.046-3.068 3.044 3.068-3.044 3.068z" fill="#2684FF"/><path d="M10.537 7.432a5.184 5.184 0 01-1.502-3.637A5.184 5.184 0 0110.515.15L3.852 6.86l3.626 3.654 3.06-3.082z" fill="url(#paint0_linear_10_1038)"/><path d="M13.59 10.492l-3.053 3.076a5.186 5.186 0 011.502 3.653c0 1.37-.54 2.683-1.502 3.652l6.682-6.728-3.63-3.653z" fill="url(#paint1_linear_10_1038)"/></g><defs><linearGradient id="paint0_linear_10_1038" x1="9.992" y1="4.328" x2="5.708" y2="8.579" gradientUnits="userSpaceOnUse"><stop offset=".18" stop-color="#0052CC"/><stop offset="1" stop-color="#2684FF"/></linearGradient><linearGradient id="paint1_linear_10_1038" x1="776.603" y1="900.925" x2="1212.74" y2="1181.57" gradientUnits="userSpaceOnUse"><stop offset=".18" stop-color="#0052CC"/><stop offset="1" stop-color="#2684FF"/></linearGradient><clipPath id="clip0_10_1038"><path fill="#fff" transform="translate(.5)" d="M0 0h20v21H0z"/></clipPath></defs></svg>
